!!!!SEGMENT: pl-kk--kk-i-66--005_anonim--missa-beata-es-virgo-maria.krn
!!!cenid: 17xx:2262
!!!COM: Anonim
!!!COM-rismID:
!!!CDT:
!!!CNT:
!!!OPR: Missa
!!!OTL: Beata es virgo Maria
!!!OMV: 005
!!!PDT:
!!!AGN: Sacred; Mass
!!!SMS-siglum: PL-Kk
!!!SMS-shelfmark: Kk.I.66
!!!SMS-shelfwork: 001-005 M
!!!SMS-variant: Baſso: PL-Kk Kk.I.66:0013
!!!SMS-altvar: Baſso: PL-Kk Kk.I.66:0018
!!!NIFC-rismSourceID: 1001154622
!!!NIFC-islandoraID: pl-kk:2804
!!!URL-pdf-islandora: https://repozytorium.nifc.pl/islandora/object/pl-kk%3A2804/datastream/PDF/view
!!!URL-scan: https://polish.musicsources.pl/pl/lokalizacje/galeria/rekopisy/6137 @EN{Scan on Polish Music Herritage in Open Access Website} @PL{Skany w portalu Dziedzictwo Muzyki Polskiej w otwartym dostępie}
!!!ONB-nifc: UWAGA: części Mszy: 1. Salve sancta parens, 2. Kyrie, 3. Et in terra, 4. Alleluia virga jesse floruit, 5. Beata es virgo Maria, 6. Sanctus, 7. Agnus Dei, 8. Dona nobis, 9. Deo gratias
!!!AIN: 1 empty 2 tenor
!!!key:
**kern	**text	**kern	**text	**kern	**text
*part3	*part3	*part2	*part2	*part1	*part1
*staff3	*staff3	*staff2	*staff2	*staff1	*staff1
*Iempty	*	*Itenor	*	*Itenor	*
*I"Baſso	*	*I"Tenore Secundo.	*	*I"Tenore Primo	*
*I'B	*	*I'T 2	*	*I'T 1	*
*clefF4	*	*clefC4	*	*clefC4	*
*k[]	*	*k[]	*	*k[]	*
*C:	*	*C:	*	*C:	*
*M2/2	*	*M2/2	*	*M2/2	*
*met(c|)	*	*met(c|)	*	*met(c|)	*
=1	=1	=1	=1	=1	=1
4C\	Be-	1G	Be-	1c	Be-
4E\	.	.	.	.	.
4G\	.	.	.	.	.
4E\	.	.	.	.	.
=2	=2	=2	=2	=2	=2
*2\right	*	*	*	*2\right	*
2C\	-a-	2G/	-a-	2c\	-a-
*	*	*2\right	*	*	*
2E\	-ta	2c\	-ta	2G/	-ta
=3	=3	=3	=3	=3	=3
4C/	Be-	1G	Be-	1e	Be-
4D/	.	.	.	.	.
4E/	.	.	.	.	.
4D/	.	.	.	.	.
=4	=4	=4	=4	=4	=4
2C/	-a-	2G/	-a-	2e\	-a-
2E\	-ta	2G/	-ta	2c\	-ta
=5	=5	=5	=5	=5	=5
4c\	Be-	1e	Be-	1g	Be-
4G\	.	.	.	.	.
4E\	.	.	.	.	.
4C\	.	.	.	.	.
=6	=6	=6	=6	=6	=6
2E\	-a-	2e\	-a-	2g\	-a-
2G\	-ta	2d\	-ta	2f\	-ta
!LO:LB:g=original	!	!	!	!	!
=7	=7	=7	=7	=7	=7
1C	es	1c	es	1e	es
!	!	!	!	!LO:LB:g=original	!
=8	=8	=8	=8	=8	=8
4G\	vir-	1d	vir-	1f	Vir-
4A\	.	.	.	.	.
4B\	.	.	.	.	.
4A\	.	.	.	.	.
!	!	!LO:LB:g=original	!	!	!
=9	=9	=9	=9	=9	=9
2G\	-go	2d\	-go	2f\	-go
2c\	Ma-	2c\	Ma-	2e\	Ma-
=10	=10	=10	=10	=10	=10
2G\	-ri-	2B\	-ri-	2d\	-ri-
2E\	.	2c\	.	2e\	.
=11	=11	=11	=11	=11	=11
1G	.	1B	.	1d	.
=12	=12	=12	=12	=12	=12
1C	-a,	1c	-a,	1e	-a,
=13	=13	=13	=13	=13	=13
4C/	quae	1G	quae	4e\	quae
4D/	.	.	.	4d\	.
4E/	.	.	.	4c\	.
4D/	.	.	.	4d\	.
=14	=14	=14	=14	=14	=14
4E/	om-	4c\	o-	4e\	o-
4D/	.	4d\	.	4f\	.
4C/	.	4e\	.	4g\	.
4E/	.	4c\	.	4e\	.
=15	=15	=15	=15	=15	=15
1G	.	4d\	.	4f\	.
.	.	4c\	.	4e\	.
.	.	4B\	.	4d\	.
.	.	4d\	.	4f\	.
!LO:PB:g=original	!	!	!	!LO:LB:g=original	!
=16	=16	=16	=16	=16	=16
4c\	.	4c\	.	4e\	.
4G\	.	4B\	.	4d\	.
4E\	.	2G/	.	4c\	.
4C/	.	.	.	4e\	.
!	!	!LO:LB:g=original	!	!	!
=17	=17	=17	=17	=17	=17
2.G\	.	4f\	.	4d\	.
.	.	4e\	.	4c\	.
.	.	4d\	-mni-	4B\	-mni-
4G\	-ni-	4f\	.	4d\	.
=18	=18	=18	=18	=18	=18
2C/	-um	2e\	-um	2c\	-um
2c\	por-	2c\	por-	2e\	por-
=19	=19	=19	=19	=19	=19
2A\	-ta-	2d\	-ta-	2f#X\	-ta-
2B\	-sti	2d\	-sti	2g\	-sti
=20	=20	=20	=20	=20	=20
2G\	cre-	4B\	cre-	4d\	cre-
.	.	4c\	.	4e\	.
2G\	-a-	4B\	-a-	4d\	-a-
.	.	4A\	.	4c\	.
=21	=21	=21	=21	=21	=21
2G\	-to-	4d\	-to-	4B\	-to-
.	.	4e\	.	4c\	.
2D\	.	4d\	.	4B\	.
.	.	4c\	.	4A\	.
=22	=22	=22	=22	=22	=22
2G\	-rem	2B\	-rem,	2G/	-rem,
2c\	quae	2e\	quae	2g\	quae
!	!	!	!	!LO:LB:g=original	!
=23	=23	=23	=23	=23	=23
2.G\	o-	2.d\	o-	2.fn\	o-
4G\	-mni-	4B\	-mni-	4d\	-mni-
!LO:LB:g=original	!	!	!LO:LB:g=original	!	!
=24	=24	=24	=24	=24	=24
2C/	-um	2c\	-um	2e\	-um
2c\	por-	2G/	por-	2e\	por-
=25	=25	=25	=25	=25	=25
2B\	-ta-	2G/	-ta-	2d\	-ta-
2c\	-sti	2G/	-sti	2e\	-sti
=26	=26	=26	=26	=26	=26
2G\	cre-	2d\	cre-	2f\	cre-
2G\	-a-	4c\	-a-	4e\	-a-
.	.	4B\	.	4d\	.
=27	=27	=27	=27	=27	=27
1G	-to-	2c\	-to-	2e\	-to-
.	.	2B\	.	2d\	.
=28	=28	=28	=28	=28	=28
1C	-rem	2G/	-rem	2e\	-rem
.	.	2r	.	2r	.
!LO:LB:g=original	!	!LO:LB:g=original	!	!LO:LB:g=original	!
=29||	=29||	=29||	=29||	=29||	=29||
*M3/2	*	*M3/2	*	*M3/2	*
2C/	ge-	1G	ge-	1c	ge-
2E/	.	.	.	.	.
2C/	-nu-	2G/	-nu-	2c\	-nu-
=30	=30	=30	=30	=30	=30
1G	-is-	1B	-is-	1d	-is-
2G\	-ti	2B\	-ti	2d\	-ti
=31	=31	=31	=31	=31	=31
2c\	ge-	1G	ge-	1e	ge-
4G\	.	.	.	.	.
4E\	.	.	.	.	.
2C/	-nu-	2G/	-nu-	2e\	-nu-
=32	=32	=32	=32	=32	=32
1G	-is-	2d\	-is-	2f\	-is-
.	.	2B\	.	2d\	.
2c\	-ti	2c\	-ti	2e\	-ti
=33	=33	=33	=33	=33	=33
2G\	qui	4B\	qui	4d\	qui
.	.	4c\	.	4e\	.
2B\	.	2d\	.	2f\	.
2c\	te	2c\	te	2e\	te
=34	=34	=34	=34	=34	=34
2F\	fe-	2f\	fe-	2d\	fe-
1G	.	2e\	.	2c\	.
.	.	2d\	.	2B\	.
!	!	!	!	!LO:LB:g=original	!
=35	=35	=35	=35	=35	=35
2C/	-cit	2e\	-cit	2c\	-cit
2r	.	2r	.	2r	.
!	!	!LO:LB:g=original	!	!	!
2c\	et	2G/	et	2e\	et
!LO:LB:g=original	!	!	!	!	!
=36	=36	=36	=36	=36	=36
!LO:TX:b:t=a	!	!	!	!	!
1A	in	1c	in	1f#X	in
!LO:TX:b:t=h	!	!	!	!	!
2B\	ae-	2d\	ae-	2g\	ae-
=37	=37	=37	=37	=37	=37
1G	-ter-	2c\	-ter-	2e\	-ter-
.	.	2B\	.	2d\	.
2F#X\	-num	2A\	-num	2c\	-num
=38	=38	=38	=38	=38	=38
2.G\	per-	2.G/	per-	2.B\	per-
4G\	-ma-	4A/	-ma-	4c\	-ma-
2G\	-nes	2B\	-nes	2d\	-nes
=39	=39	=39	=39	=39	=39
!	!	!LO:TX:t=P:problem=wykreślony takt	!	!	!
1C	vir-	2c\	vir-	2e\	vir-
.	.	4c\	.	4e\	.
.	.	4B\	.	4d\	.
2C#X/	.	4A\	.	4c\	.
.	.	4G\	.	4B\	.
=40	=40	=40	=40	=40	=40
2D/	-go	2F#X/	-go	2A/	-go
2r	.	2r	.	2r	.
2D\	et	2A\	et	2c\	et
!	!	!LO:LB:g=original	!	!LO:LB:g=original	!
=41	=41	=41	=41	=41	=41
1G	in	2G/	in	2B\	in
.	.	2c\	.	2e\	.
2G\	ae-	2B\	ae-	2d\	ae-
=42	=42	=42	=42	=42	=42
2F#X\	-ter-	1A	-ter-	1c	-ter-
2D\	.	.	.	.	.
2G\	-num	2G/	-num	2B\	-num
!LO:LB:g=original	!	!	!	!	!
=43	=43	=43	=43	=43	=43
2r	.	2r	.	2r	.
2r	.	2r	.	2r	.
2G\	et	2B\	et	2d\	et
=44	=44	=44	=44	=44	=44
1G	in	2d\	in	2fn\	in
.	.	2c\	.	2e\	.
2G\	ae-	2e\	ae-	2g\	ae-
=45	=45	=45	=45	=45	=45
2C/	-ter-	2e\	-ter-	2g\	-ter-
2D/	.	2d\	.	2f\	.
2E\	-num	2c\	-num	2e\	-num
=46	=46	=46	=46	=46	=46
2D/	per-	2B\	per-	2d\	per-
2C/	-ma-	2c\	-ma-	2e\	-ma-
2BB/	-nes	2d\	-nes	2f\	-nes
=47	=47	=47	=47	=47	=47
2C/	vir-	2c\	vir-	2e\	vir-
2D/	.	2B\	.	2d\	.
2E\	.	2G/	.	2c\	.
!	!	!LO:LB:g=original	!	!LO:LB:g=original	!
=48	=48	=48	=48	=48	=48
2F\	.	2f\	.	2d\	.
1G	.	2e\	.	2c\	.
.	.	2d\	.	2B\	.
=49	=49	=49	=49	=49	=49
2C/	-go	2e\	-go	2c\	-go
2c\	al-	2G/	al-	2e\	al-
2c\	-le-	2G/	-le-	2e\	-le-
!LO:LB:g=original	!	!	!	!	!
=50	=50	=50	=50	=50	=50
1G	-lu-	1B	-lu-	1d	-lu-
2c\	-ia	2c\	-ia	2e\	-ia
=51	=51	=51	=51	=51	=51
2F\	al-	2d\	al-	2f\	al-
2G\	-le-	2c\	-le-	2e\	-le-
2G\	-lu-	2B\	-lu-	2d\	-lu-
=52	=52	=52	=52	=52	=52
2C/	-ia	2c\	-ia	2e\	-ia
2C/	al-	2e\	al-	2g\	al-
2D/	-le-	2d\	-le-	2f\	-le-
=53	=53	=53	=53	=53	=53
1E	-lu-	1c	-lu-	1e	-lu-
2F\	-ia	2B\	-ia	2d\	-ia
!	!	!	!	!LO:LB:g=original	!
=54	=54	=54	=54	=54	=54
1E	al-	1.G	al-	1c	al-
2D\	.	.	.	2B\	.
!	!	!LO:LB:g=original	!	!	!
=55	=55	=55	=55	=55	=55
2E\	-le-	2G/	-le-	2c\	-le-
2G\	.	2B\	.	2d\	.
2c\	.	2c\	.	2e\	.
=56	=56	=56	=56	=56	=56
2F\	-lu-	2d\	.	2f\	-lu-
1G	.	2c\	.	2e\	.
.	.	2B\	-lu-	2d\	.
=57	=57	=57	=57	=57	=57
1C	-ia	1.c	-ia	1.e	-ia
2ryy	.	.	.	.	.
==	==	==	==	==	==
*-	*-	*-	*-	*-	*-
!!!system-decoration: [(s1,s2,s3)]
!!!ENC: Andrzej Kubiczek
!!!END: 2021-08-06
!!!ENC: Anastazja Marusiak
!!!END: 2021-07-07
